X: 080325
T: High Road to Glin
C: M.Mulvihill
Z: B.Black
R: reel
M: 4/4
L: 1/8
K: D
D/E/ | F2 AF EFDE | F2 AF EA, A,2 | F2 FE DEFA |\
(3Bcd AF E2 DE |
F2 AF DFAF | F2 AF EA, A,2 | F2 FE DEFA |\
(3Bcd AF D3 :|
e | f2 df e2 df | afeg fB (3BAB | f2 df af (3fef |\
bfaf e2 de |
fa (3aba egfe | dfed BcdA | F2 FE DEFA |\
(3Bcd AF D3 :|
